assets/img/icons/canvas.svg

<svg fill="none" height="55" viewBox="0 0 54 55" width="54" xmlns="http://www.w3.org/2000/svg" xmlns:xlink="http://www.w3.org/1999/xlink"><linearGradient id="a" gradientUnits="userSpaceOnUse" x1="27" x2="26.9999" y1="4.04998" y2="22.2959"><stop offset="0" stop-color="#4c98ed"/><stop offset="1" stop-color="#e5a7de"/></linearGradient><path d="m19.8 4.05005h14.4c1.1045 0 2 .89543 2 2v11.36585c0 .8179-.4979 1.5533-1.2573 1.857l-7.1999 2.88c-.4769.1907-1.0088.1907-1.4856 0l-7.2-2.88c-.7593-.3037-1.2572-1.0391-1.2572-1.857v-11.36585c0-1.10457.8954-2 2-2z" fill="url(#a)"/><path d="m20.6055 37.9819h-11.7449v8.7664h11.7449z" fill="#6471b9"/><path d="m45.0168 37.9819h-11.5v8.6181h11.5z" fill="#cf7dc6"/><g fill="#2e3c47"><path clip-rule="evenodd" d="m5.84057 36.5565h17.78663v-1.6h-17.78663z" fill-rule="evenodd"/><path d="m35.1998 4.05005h-16.4c-.5523 0-1 .44771-1 1v3.72428h18.4v-3.72428c0-.55229-.4478-1-1-1z"/><path clip-rule="evenodd" d="m26.2006 25.9431h-9.4669c-1.5464 0-2.8 1.2536-2.8 2.8v2.9067h1.6v-2.9067c0-.6627.5372-1.2 1.2-1.2h20.5332c.6628 0 1.2.5373 1.2 1.2v2.9067h1.6v-2.9067c0-1.5464-1.2536-2.8-2.8-2.8h-9.4663v-4.1064h-1.6zm20.277 5.7068c.0551.0003.1096.0028.1635.0075.2816.0243.5465.107.7826.2359.6214.3393 1.043.9987 1.043 1.7566v2.9066h-18.4v-.9066h-.0001v-2c0-.0588.0026-.117.0076-.1744.0243-.2817.107-.5466.2359-.7826.0181-.0333.0372-.066.0571-.098.1625-.2611.3834-.482.6444-.6444.0321-.02.0648-.039.098-.0572.1771-.0966.3703-.1673.5747-.2069.0681-.0132.1375-.0229.2079-.029.0575-.005.1157-.0075.1744-.0075h.0001 1.9999 3.2 4 3.2 2 .0001zm-16.411 7.2h1.6v4h-1.6zm0 7.2h1.6v2c0 .0127.0006.0249.0016.0367l.0288.3329.3329.0288c.0059.0005.0119.0009.018.0012.0061.0002.0124.0004.0187.0004h2v1.6h-2c-.0587 0-.1169-.0026-.1744-.0075-.2816-.0244-.5465-.1071-.7826-.236-.0332-.0181-.0659-.0372-.098-.0571-.261-.1624-.4819-.3833-.6444-.6444-.0199-.0321-.039-.0647-.0571-.098-.1289-.2361-.2116-.501-.2359-.7826-.005-.0575-.0076-.1157-.0076-.1744zm7.2 4v-1.6h4v1.6zm7.2 0v-1.6h2c.0065 0 .0128-.0002.019-.0005.006-.0002.0119-.0006.0177-.0011l.333-.0288.0287-.3329c.0011-.0118.0016-.024.0016-.0367v-2h1.6v2c0 .0587-.0025.1169-.0075.1744-.0243.2816-.107.5465-.2359.7826-.0182.0333-.0372.0659-.0572.098-.1624.2611-.3833.482-.6444.6444-.032.0199-.0647.039-.0979.0571-.2361.1289-.501.2116-.7826.236-.0575.0049-.1157.0075-.1745.0075zm4-7.2h-1.6v-4h1.6zm-41.3334-6.2934h15.2v11.4934c0 .2209-.1791.4-.4.4h-14.4c-.22091 0-.4-.1791-.4-.4zm.4-4.9066h.00055 14.39945.0005l.0253.0002c1.0929.0135 1.9747.9037 1.9747 1.9998v2.9066h-.0005v11.4934c0 1.1045-.8955 2-2 2h-14.4c-1.10457 0-2-.8955-2-2v-14.4c0-1.1046.89543-2 2-2z" fill-rule="evenodd"/></g></svg>

<svg width="54" height="55" viewBox="0 0 54 55" fill="none" xmlns="http://www.w3.org/2000/svg">
<path d="M19.8 4.05005H34.2C35.3045 4.05005 36.2 4.94548 36.2 6.05005V17.4159C36.2 18.2338 35.7021 18.9692 34.9427 19.2729L27.7428 22.1529C27.2659 22.3436 26.734 22.3436 26.2572 22.1529L19.0572 19.2729C18.2979 18.9692 17.8 18.2338 17.8 17.4159V6.05005C17.8 4.94548 18.6954 4.05005 19.8 4.05005Z" fill="url(#paint0_linear_5018_29883)"/>
<path d="M20.6055 37.9819H8.8606V46.7483H20.6055V37.9819Z" fill="#6471B9"/>
<path d="M45.0168 37.9819H33.5168V46.6H45.0168V37.9819Z" fill="#CF7DC6"/>
<path fill-rule="evenodd" clip-rule="evenodd" d="M5.84057 36.5565H23.6272V34.9565H5.84057V36.5565Z" fill="#2E3C47"/>
<path d="M35.1998 4.05005H18.7998C18.2475 4.05005 17.7998 4.49776 17.7998 5.05005V8.77433H36.1998V5.05005C36.1998 4.49776 35.752 4.05005 35.1998 4.05005Z" fill="#2E3C47"/>
<path fill-rule="evenodd" clip-rule="evenodd" d="M26.2006 25.9431H16.7337C15.1873 25.9431 13.9337 27.1967 13.9337 28.7431V31.6498H15.5337V28.7431C15.5337 28.0804 16.0709 27.5431 16.7337 27.5431H37.2669C37.9297 27.5431 38.4669 28.0804 38.4669 28.7431V31.6498H40.0669V28.7431C40.0669 27.1967 38.8133 25.9431 37.2669 25.9431H27.8006V21.8367H26.2006V25.9431ZM46.4776 31.6499C46.5327 31.6502 46.5872 31.6527 46.6411 31.6574C46.9227 31.6817 47.1876 31.7644 47.4237 31.8933C48.0451 32.2326 48.4667 32.892 48.4667 33.6499V36.5565H30.0667V35.6499H30.0666V33.6499C30.0666 33.5911 30.0692 33.5329 30.0742 33.4755C30.0985 33.1938 30.1812 32.9289 30.3101 32.6929C30.3282 32.6596 30.3473 32.6269 30.3672 32.5949C30.5297 32.3338 30.7506 32.1129 31.0116 31.9505C31.0437 31.9305 31.0764 31.9115 31.1096 31.8933C31.2867 31.7967 31.4799 31.726 31.6843 31.6864C31.7524 31.6732 31.8218 31.6635 31.8922 31.6574C31.9497 31.6524 32.0079 31.6499 32.0666 31.6499C32.0667 31.6499 32.0667 31.6499 32.0667 31.6499H34.0666H37.2666H41.2666H44.4666H46.4666H46.4667C46.4703 31.6499 46.474 31.6499 46.4776 31.6499ZM30.0666 38.8499H31.6666V42.8499H30.0666V38.8499ZM30.0666 46.0499H31.6666V48.0499C31.6666 48.0626 31.6672 48.0748 31.6682 48.0866L31.697 48.4195L32.0299 48.4483C32.0358 48.4488 32.0418 48.4492 32.0479 48.4495C32.054 48.4497 32.0603 48.4499 32.0666 48.4499H34.0666V50.0499H32.0666C32.0079 50.0499 31.9497 50.0473 31.8922 50.0424C31.6106 50.018 31.3457 49.9353 31.1096 49.8064C31.0764 49.7883 31.0437 49.7692 31.0116 49.7493C30.7506 49.5869 30.5297 49.366 30.3672 49.1049C30.3473 49.0728 30.3282 49.0402 30.3101 49.0069C30.1812 48.7708 30.0985 48.5059 30.0742 48.2243C30.0692 48.1668 30.0666 48.1086 30.0666 48.0499V46.0499ZM37.2666 50.0499V48.4499H41.2666V50.0499H37.2666ZM44.4666 50.0499V48.4499H46.4666C46.4731 48.4499 46.4794 48.4497 46.4856 48.4494C46.4916 48.4492 46.4975 48.4488 46.5033 48.4483L46.8363 48.4195L46.865 48.0866C46.8661 48.0748 46.8666 48.0626 46.8666 48.0499V46.0499H48.4666V48.0499C48.4666 48.1086 48.4641 48.1668 48.4591 48.2243C48.4348 48.5059 48.3521 48.7708 48.2232 49.0069C48.205 49.0402 48.186 49.0728 48.166 49.1049C48.0036 49.366 47.7827 49.5869 47.5216 49.7493C47.4896 49.7692 47.4569 49.7883 47.4237 49.8064C47.1876 49.9353 46.9227 50.018 46.6411 50.0424C46.5836 50.0473 46.5254 50.0499 46.4666 50.0499H44.4666ZM48.4666 42.8499H46.8666V38.8499H48.4666V42.8499ZM7.1332 36.5565H22.3332V48.0499C22.3332 48.2708 22.1541 48.4499 21.9332 48.4499H7.5332C7.31229 48.4499 7.1332 48.2708 7.1332 48.0499V36.5565ZM7.5332 31.6499H7.53375H21.9332H21.9337L21.959 31.6501C23.0519 31.6636 23.9337 32.5538 23.9337 33.6499V36.5565H23.9332V48.0499C23.9332 49.1544 23.0377 50.0499 21.9332 50.0499H7.5332C6.42863 50.0499 5.5332 49.1544 5.5332 48.0499V33.6499C5.5332 32.5453 6.42863 31.6499 7.5332 31.6499Z" fill="#2E3C47"/>
<defs>
<linearGradient id="paint0_linear_5018_29883" x1="27" y1="4.04998" x2="26.9999" y2="22.2959" gradientUnits="userSpaceOnUse">
<stop stop-color="#4C98ED"/>
<stop offset="1" stop-color="#E5A7DE"/>
</linearGradient>
</defs>
</svg>
